packages/icons/web/shopping_cart_large.svg

<svg width="24" height="24" viewBox="0 0 24 24" fill="none" xmlns="http://www.w3.org/2000/svg">
<path fill-rule="evenodd" clip-rule="evenodd" d="M5.45961 3.71865C5.33471 3.29266 4.94392 3 4.5 3H3C2.44771 3 2 3.44772 2 4C2 4.55228 2.44771 5 3 5H3.7511L7.04039 16.2188C7.16529 16.6448 7.55608 16.9375 8 16.9375H17C17.5523 16.9375 18 16.4898 18 15.9375C18 15.3852 17.5523 14.9375 17 14.9375H8.7489L5.45961 3.71865Z" fill="#212933"/>
<path fill-rule="evenodd" clip-rule="evenodd" d="M9.25 18C9.58152 18 9.89946 18.1317 10.1339 18.3661C10.3683 18.6005 10.5 18.9185 10.5 19.25C10.5 19.4972 10.4267 19.7389 10.2893 19.9445C10.152 20.15 9.95675 20.3102 9.72835 20.4048C9.49994 20.4995 9.24861 20.5242 9.00614 20.476C8.76367 20.4278 8.54094 20.3087 8.36612 20.1339C8.19129 19.9591 8.07225 19.7363 8.02402 19.4939C7.97579 19.2514 8.00054 19.0001 8.09515 18.7716C8.18976 18.5432 8.34997 18.348 8.55554 18.2107C8.7611 18.0733 9.00278 18 9.25 18Z" fill="#212933"/>
<path fill-rule="evenodd" clip-rule="evenodd" d="M15.75 18C16.0815 18 16.3995 18.1317 16.6339 18.3661C16.8683 18.6005 17 18.9185 17 19.25C17 19.4972 16.9267 19.7389 16.7893 19.9445C16.652 20.15 16.4568 20.3102 16.2284 20.4048C15.9999 20.4995 15.7486 20.5242 15.5061 20.476C15.2637 20.4278 15.0409 20.3087 14.8661 20.1339C14.6913 19.9591 14.5722 19.7363 14.524 19.4939C14.4758 19.2514 14.5005 19.0001 14.5952 18.7716C14.6898 18.5432 14.85 18.348 15.0555 18.2107C15.2611 18.0733 15.5028 18 15.75 18Z" fill="#212933"/>
<path fill-rule="evenodd" clip-rule="evenodd" d="M20.8112 5.41529C20.6233 5.15452 20.3214 5 20 5H5.99999C5.44771 5 4.99999 5.44772 4.99999 6C4.99999 6.55228 5.44771 7 5.99999 7H18.6126L17.2792 11H6.99999V13H18C18.4304 13 18.8126 12.7246 18.9487 12.3162L20.9487 6.31623C21.0503 6.01128 20.9992 5.67606 20.8112 5.41529Z" fill="#212933"/>
</svg>

<svg width="24" height="24" fill="none" xmlns="http://www.w3.org/2000/svg">
    <path fill-rule="evenodd" clip-rule="evenodd" d="M5.46 3.719A1 1 0 004.5 3H3a1 1 0 100 2h.751l3.29 11.219a1 1 0 00.959.718h9a1 1 0 100-2H8.749L5.459 3.72zM9.25 18a1.25 1.25 0 110 2.5 1.25 1.25 0 010-2.5zm6.5 0a1.25 1.25 0 110 2.5 1.25 1.25 0 010-2.5z" fill="currentColor"/>
    <path fill-rule="evenodd" clip-rule="evenodd" d="M20.811 5.415A1 1 0 0020 5H6a1 1 0 000 2h12.613l-1.334 4H7v2h11a1 1 0 00.949-.684l2-6a1 1 0 00-.138-.9z" fill="currentColor"/>
</svg>
